vi-base/public/vi/viur-shoelace/assets/icons/kiosk.svg

<svg xmlns="http://www.w3.org/2000/svg" viewBox="8 12 44 36"><path d="m16.34 22.11 3.52-9.72h-5.35L9 22.79a3.72 3.72 0 0 0 7.44 0Zm8.66 0 1.21-9.72h-5.29l-3.42 9.72.06.68a3.72 3.72 0 1 0 7.44 0Zm8.69 0-1.11-9.72h-5.26l-1.11 9.72v.68a3.72 3.72 0 1 0 7.44 0Zm8.71 0L39 12.39h-5.31l1.2 9.72.17.68a3.72 3.72 0 0 0 7.44 0Zm2.99-9.72H40l3.53 9.72.26.68a3.72 3.72 0 1 0 7.44 0Z" fill="currentcolor" opacity=".75"/><path d="M47.38 28.22a5.7 5.7 0 0 1-1.73-.22v11.3H14.41V27.9a5.82 5.82 0 0 1-1.9.32 5.83 5.83 0 0 1-.72-.06v19.45h36.32V28.16a5.83 5.83 0 0 1-.73.06Z" fill="currentcolor"/></svg>

<svg xmlns="http://www.w3.org/2000/svg" viewBox="8 12 44 36"><path d="M16.34,22.11l3.52-9.72H14.51L9,22.79a3.72,3.72,0,0,0,7.44,0Z" fill="currentcolor" opacity="0.75"/><path d="M25,22.11l1.21-9.72H20.92L17.5,22.11l.06.68a3.72,3.72,0,1,0,7.44,0Z" fill="currentcolor" opacity="0.75"/><path d="M33.69,22.11l-1.11-9.72H27.32l-1.11,9.72v.68a3.72,3.72,0,1,0,7.44,0Z" fill="currentcolor" opacity="0.75"/><path d="M42.4,22.11,39,12.39H33.69l1.2,9.72.17.68a3.72,3.72,0,0,0,7.44,0Z" fill="currentcolor" opacity="0.75"/><path d="M45.39,12.39H40l3.53,9.72.26.68a3.72,3.72,0,1,0,7.44,0Z" fill="currentcolor" opacity="0.75"/><path d="M47.38,28.22A5.7,5.7,0,0,1,45.65,28V39.3H14.41V27.9a5.82,5.82,0,0,1-1.9.32,5.83,5.83,0,0,1-.72-.06V47.61H48.11V28.16A5.83,5.83,0,0,1,47.38,28.22Z" fill="currentcolor"/></svg>
